Adwaita++-Dark/actions/16/view-calendar-holiday.svg

<svg height="16" viewBox="0 0 16 16" width="16" xmlns="http://www.w3.org/2000/svg">
  <path d="m3 1c-2.25 0-2 2-2 2v12h14v-12c0-2-2-2-2-2zm0 2h10v10h-10v-2.5z" fill="#e6ddff"/>
  <path d="m7 7v2h2v-2zm3 0v2h2v-2z" fill="#4285f4"/>
</svg>

<svg xmlns="http://www.w3.org/2000/svg" width="16" height="16" version="1.1" viewBox="0 0 16 16">
 <defs>
  <style id="current-color-scheme" type="text/css">
   .ColorScheme-Text { color:#E6DDFF; } .ColorScheme-Highlight { color:#4285f4; }
  </style>
 </defs>
 <path class="ColorScheme-Text" d="M 3 1 C 0.75 1 1 3 1 3 L 1 15 L 15 15 L 15 3 C 15 1 13 1 13 1 L 3 1 z M 3 3 L 13 3 L 13 13 L 3 13 L 3 10.5 L 3 3 z" style="fill:currentColor"/>
 <path class="ColorScheme-Highlight" d="M 7 7 L 7 9 L 9 9 L 9 7 L 7 7 z M 10 7 L 10 9 L 12 9 L 12 7 L 10 7 z" style="fill:currentColor"/>
</svg>
